azure-icons/manage-320-Alerts.svg

<svg xmlns="http://www.w3.org/2000/svg" width="18" height="18"><defs><linearGradient id="a" x1="9" y1="17.2" x2="9" y2="-3.28" gradientUnits="userSpaceOnUse"><stop offset="0" stop-color="#5e9624"/><stop offset=".18" stop-color="#629c25"/><stop offset=".44" stop-color="#6dae2a"/><stop offset=".73" stop-color="#7fcb30"/><stop offset=".82" stop-color="#86d633"/></linearGradient></defs><path d="M17.5 2.5v10.83a.58.58 0 01-.58.58H12.4a.15.15 0 00-.15.14v1.75a.28.28 0 01-.45.23l-2.72-2.09h-8a.58.58 0 01-.58-.58V2.5a.58.58 0 01.58-.59h15.84a.58.58 0 01.58.59z" fill="url(#a)"/><path d="M9.54 9.63H8.38A.36.36 0 018 9.29l-.2-5.86a.35.35 0 01.35-.36h1.7a.35.35 0 01.35.37L9.89 9.3a.35.35 0 01-.35.33z" fill="#fff"/><rect x="8.13" y="10.62" width="1.69" height="1.69" rx=".61" fill="#fff"/></svg>

<svg id="a9f56b4e-2a51-4471-9488-d461408ae4eb" xmlns="http://www.w3.org/2000/svg"  width="18" height="18" viewBox="0 0 18 18">
  <defs>
    <linearGradient id="e4e1e494-21f1-4e9c-a6fa-0993efff08d3" x1="9" y1="17.2" x2="9" y2="-3.28" gradientUnits="userSpaceOnUse">
      <stop offset="0" stop-color="#5e9624"/>
      <stop offset="0.18" stop-color="#629c25"/>
      <stop offset="0.44" stop-color="#6dae2a"/>
      <stop offset="0.73" stop-color="#7fcb30"/>
      <stop offset="0.82" stop-color="#86d633"/>
    </linearGradient>
  </defs>
  <title>Icon-manage-320</title>
  <g>
    <path d="M17.5,2.5V13.33a.58.58,0,0,1-.58.58H12.4a.15.15,0,0,0-.15.14V15.8a.28.28,0,0,1-.45.23L9.08,13.94l-.09,0H1.08a.58.58,0,0,1-.58-.58V2.5a.58.58,0,0,1,.58-.59H16.92A.58.58,0,0,1,17.5,2.5Z" fill="url(#e4e1e494-21f1-4e9c-a6fa-0993efff08d3)"/>
    <path d="M9.54,9.63H8.38A.36.36,0,0,1,8,9.29L7.8,3.43a.35.35,0,0,1,.35-.36h1.7a.35.35,0,0,1,.35.37L9.89,9.3A.35.35,0,0,1,9.54,9.63Z" fill="#fff"/>
    <rect x="8.13" y="10.62" width="1.69" height="1.69" rx="0.61" fill="#fff"/>
  </g>
</svg>
